client/public/assets/icons/utility/phone_portrait.svg

<?xml version="1.0"?><svg xmlns="http://www.w3.org/2000/svg" width="52" height="52" viewBox="0 0 52 52"><path fill="#fff" d="m43 4c0-2.2-1.8-4-4-4h-26c-2.2 0-4 1.8-4 4v44c0 2.2 1.8 4 4 4h26c2.2 0 4-1.8 4-4v-44z m-17 46c-1.7 0-3-1.3-3-3s1.3-3 3-3 3 1.3 3 3-1.3 3-3 3z m11-9.5c0 0.8-0.7 1.5-1.5 1.5h-19c-0.8 0-1.5-0.7-1.5-1.5v-31c0-0.8 0.7-1.5 1.5-1.5h19c0.8 0 1.5 0.7 1.5 1.5v31z"></path></svg>

<?xml version="1.0" encoding="utf-8"?>
<!-- Generator: Adobe Illustrator 18.1.1, SVG Export Plug-In . SVG Version: 6.00 Build 0)  -->
<svg version="1.1" id="Layer_1" xmlns="http://www.w3.org/2000/svg" xmlns:xlink="http://www.w3.org/1999/xlink" x="0px" y="0px"
	 width="52px" height="52px" viewBox="0 0 52 52" enable-background="new 0 0 52 52" xml:space="preserve">
<path fill="#FFFFFF" d="M43,4c0-2.2-1.8-4-4-4H13c-2.2,0-4,1.8-4,4v44c0,2.2,1.8,4,4,4h26c2.2,0,4-1.8,4-4V4z M26,50
	c-1.7,0-3-1.3-3-3s1.3-3,3-3s3,1.3,3,3S27.7,50,26,50z M37,40.5c0,0.8-0.7,1.5-1.5,1.5h-19c-0.8,0-1.5-0.7-1.5-1.5v-31
	C15,8.7,15.7,8,16.5,8h19C36.3,8,37,8.7,37,9.5V40.5z"/>
</svg>
